src/Netnr.P/Netnr.ScriptService/wwwroot/icon/qrcode.svg

<?xml version="1.0" standalone="no"?><!DOCTYPE svg PUBLIC "-//W3C//DTD SVG 1.1//EN" "http://www.w3.org/Graphics/SVG/1.1/DTD/svg11.dtd"><svg t="1570008333599" class="icon" viewBox="0 0 1024 1024" version="1.1" xmlns="http://www.w3.org/2000/svg" p-id="2868" xmlns:xlink="http://www.w3.org/1999/xlink" width="200" height="200"><defs><style type="text/css"></style></defs><path d="M136.50933584 137.92331683h81.8534823v81.85348231h-81.8534823v-81.85348231z" fill="" p-id="2869"></path><path d="M365.57425829-9.28812332h-376.43239762v376.43239761h147.36747517v65.51399286h81.8534823v-65.51399286h147.36747515v-81.8534823h65.51399285v-65.51399285h-65.51399285l-0.15741584-229.06492246zM283.87819182 285.29217283h-212.88284883v-212.725433h212.72543298v212.725433h0.15741585zM136.50933584 809.09342644h81.8534823v81.85348231h-81.8534823v-81.85348231zM807.52202959 137.92331683h81.8534823v81.85348231h-81.8534823v-81.85348231zM512.94311427 507.91547284v88.29510476h81.85348232v-81.69744731h65.51399285v-81.85348229h-65.51399285v-65.51399285h-81.85348232v140.76981769zM512.94311427 807.20857872v83.73833003h81.85348232v-147.36747516h65.51399285v-81.8534823h-147.36747517v145.48262743zM594.79659659 890.94690875h65.51399285v65.51399285h-65.51399285v-65.51399285zM431.08963197 956.4609016v81.6974473h163.70834546v-81.6974473h-163.70834546z" fill="" p-id="2870"></path><path d="M742.1654526 743.57943359h-81.85348232v147.36747516h147.21144015v-81.85348231h-65.35657699v-65.51399285zM807.52202959 1038.1583489h229.2223383v-81.6974473h-147.36747515v-65.51399285h-81.85348231v147.21144015zM1036.74436789 514.51451114v-81.85348231h-147.36747515v81.85348231h147.36747515zM954.88950475 809.09342644h81.85348231v81.85348231h-81.85348231v-81.85348231zM431.08963197 285.29217283h81.8534823v81.85348232h-81.8534823v-81.85348232zM807.52202959 432.659648v-65.51399285h229.2223383v-376.43239762h-376.43239761v81.8534823h-147.36747515v65.51399286h147.36747515v81.69744729h-65.51399285v65.51399285h65.51399285v81.85348232h81.85348232v65.51399285h65.35657699zM742.1654526 72.56535899h212.72543299v212.725433h-212.72543299v-212.725433zM742.1654526 596.2105776h65.35657699v65.51399285h-65.35657699v-65.51399285zM889.37551189 743.57943359h-81.8534823v65.51399285h147.36747516v-147.36747515h81.85348231v-65.51399286h-147.36747517v147.36747516zM431.08963197 137.92331683h81.8534823v81.85348231h-81.8534823v-81.85348231zM218.36281814 514.51451114h65.51399285v81.69744729h-65.51399285v-81.69744729zM431.08963197 432.659648h-147.21144015v81.85348229h81.69744732v81.69744731h65.51399283v-163.5509296z" fill="" p-id="2871"></path><path d="M365.57425829 890.94690875v-147.36747516h65.51399284v-81.8534823h-294.57891529v-147.21144015h-147.36747517v81.85348232h81.85348232v65.51399283h-81.85348232v376.43239761h376.43239762v-81.8534823h65.51399284v-65.51399285h-65.51399284zM283.87819182 956.4609016h-212.88284883v-212.88284885h212.72543298v212.88284885h0.15741585zM431.08963197 596.2105776h81.8534823v65.51399285h-81.8534823v-65.51399285zM660.31058944 514.51451114h81.8534823v81.69744729h-81.8534823v-81.69744729zM807.52202959 514.51451114h81.8534823v81.69744729h-81.8534823v-81.69744729z" fill="" p-id="2872"></path></svg>

<svg viewBox="0 0 1024 1024" xmlns="http://www.w3.org/2000/svg" width="200" height="200"><path d="M136.51 137.923h81.853v81.854h-81.854v-81.854z"/><path d="M365.574-9.288H-10.858v376.432h147.367v65.514h81.854v-65.514H365.73v-81.853h65.514v-65.514H365.73l-.157-229.065zm-81.696 294.58H70.995V72.567h212.726v212.725h.157zM136.51 809.093h81.854v81.854H136.51v-81.854zm671.013-671.17h81.854v81.854h-81.854v-81.854zm-294.58 369.992v88.296h81.854v-81.698h65.514V432.66h-65.514v-65.514h-81.854v140.77zm0 299.294v83.738h81.854V743.579h65.514v-81.853H512.943v145.483zm81.854 83.738h65.514v65.514h-65.514v-65.514zM431.09 956.46v81.697h163.708V956.46H431.09z"/><path d="M742.165 743.58h-81.853v147.367h147.211v-81.854h-65.356V743.58zm65.357 294.578h229.222v-81.697H889.377v-65.514h-81.854v147.211zm229.222-523.643V432.66H889.377v81.854h147.367zM954.89 809.093h81.853v81.854H954.89v-81.854zm-523.8-523.8h81.853v81.853H431.09v-81.854zM807.522 432.66v-65.514h229.222V-9.287H660.312v81.854H512.944v65.514h147.368v81.697h-65.514v65.514h65.514v81.854h81.853v65.514h65.357zM742.165 72.565h212.726v212.726H742.165V72.565zm0 523.646h65.357v65.514h-65.357V596.21zm147.21 147.368h-81.853v65.514H954.89V661.726h81.853v-65.514H889.376v147.367zM431.09 137.923h81.853v81.854H431.09v-81.854zM218.363 514.515h65.514v81.697h-65.514v-81.697zM431.09 432.66H283.878v81.853h81.698v81.698h65.514V432.66z"/><path d="M365.574 890.947V743.579h65.514v-81.853H136.51V514.515H-10.858v81.853h81.853v65.514h-81.853v376.432h376.432v-81.853h65.514v-65.514h-65.514zm-81.696 65.514H70.995V743.578h212.726v212.883h.157zM431.09 596.21h81.853v65.514H431.09V596.21zm229.22-81.696h81.854v81.697h-81.853v-81.697zm147.212 0h81.854v81.697h-81.854v-81.697z"/></svg>
